packages/icons/svg/Fill/checkmark-circle.svg

<svg fill="none" height="24" viewBox="0 0 24 24" width="24" xmlns="http://www.w3.org/2000/svg"><path clip-rule="evenodd" d="m16.2954 9.60549-4.568 6.00001c-.188.247-.479.393-.789.395h-.007c-.307 0-.597-.142-.787-.384l-2.432-3.107c-.34-.434-.264-1.063.171-1.403.434-.341 1.064-.265 1.404.171l1.633 2.086 3.784-4.96901c.334-.439.961-.525 1.402-.19.439.335.524.962.189 1.401zm-4.295-7.605c-5.52302 0-10.00002 4.477-10.00002 10.00001 0 5.522 4.477 10 10.00002 10 5.523 0 10-4.478 10-10 0-5.52301-4.477-10.00001-10-10.00001z" fill="#6b7280" fill-rule="evenodd"/></svg>

<svg width="24" height="24" viewBox="0 0 24 24" fill="none" xmlns="http://www.w3.org/2000/svg">
<g id="Icon/Fill/checkmark-circle">
<path id="Mask" fill-rule="evenodd" clip-rule="evenodd" d="M16.2955 9.6055L11.7275 15.6055C11.5395 15.8525 11.2485 15.9985 10.9385 16.0005H10.9315C10.6245 16.0005 10.3345 15.8585 10.1445 15.6165L7.71249 12.5095C7.37249 12.0755 7.44849 11.4465 7.88349 11.1065C8.31749 10.7655 8.94749 10.8415 9.28749 11.2775L10.9205 13.3635L14.7045 8.3945C15.0385 7.9555 15.6655 7.8695 16.1065 8.2045C16.5455 8.5395 16.6305 9.1665 16.2955 9.6055ZM12.0005 2.0005C6.47749 2.0005 2.00049 6.4775 2.00049 12.0005C2.00049 17.5225 6.47749 22.0005 12.0005 22.0005C17.5235 22.0005 22.0005 17.5225 22.0005 12.0005C22.0005 6.4775 17.5235 2.0005 12.0005 2.0005Z" fill="#000000"/>
</g>
</svg>
